!!!SOCIAL_FUNCTION:	songs of social dances
!!!PDT:	1958
!!!OTL: No_28_Song_of_a_Jumping_Dance.krn
!!!REG: Northern California
!!!LANG: Non-Tone
!!!LING_GROUP: Penutian
**kern
*staff1
=1-
*clefF4
*k[b-]
*M3/4
16F\LK
8.F\J
8F\L
16F\L
16E\JJ
8D\
8r
=2
16F\LK
8.F\J
8F\L
16F\L
16E\JJ
8F\
8r
=3
16G\LK
8.F\J
8F\L
16F\L
16E\JJ
8D\
8r
=4
*M2/4
4A\
16F\LK
8F\
16F\Jk
=5
8D\L
8F\J
4F\
=6
8F\L
16F\L
16F\JJ
8D\
8r
=7
4G\
8G\L
16F\L
16F\JJ
=8
8F\L
8G\J
4F\
=9
8F\L
16F\L
16F\JJ
8D\
8r
=10!|:
4G\
16F\LK
8F\
16F\Jk
=11
8F\L
8G\J
4F\
=12
8F\L
16F\L
16F\JJ
8D\
8r
=13
*M3/4
16G\LK
8G\
16F\Jk
8G\L
16F\L
16F\JJ
8F\L
8G\J
=14
16F\LK
8.F\J
8F\L
16F\L
16F\JJ
8D\
8r
==:|!
*-
